ES1T1/14/aimg/banco.svg

<svg clip-rule="evenodd" fill-rule="evenodd" stroke-linejoin="round" stroke-miterlimit="2" viewBox="0 0 95 119" xmlns="http://www.w3.org/2000/svg" xmlns:xlink="http://www.w3.org/1999/xlink"><image height="11" transform="matrix(.9852 0 0 .919058 36.0977 1.62122)" width="15" xlink:href="data:image/png;base64,iVBORw0KGgoAAAANSUhEUgAAAA8AAAALCAYAAACgR9dcAAAACXBIWXMAAA7EAAAOxAGVKw4bAAAA1klEQVQokY3RXyvEQRTG8Y/dcqEUSUgt2m29l2maFztN8zbcSGx7s5uSFDci5M+FHy1+fjyX58z3ec6cs6RDudRdbOMoxfDyvd/rAA+whmsM2t60wrnUPazjFDNs5lJX/oRzqavYwnGK4bkZd4pxJ5xL7eMQJymGx496iuEGD7nUna7kIS5TDLctv5likEtd/gHnUjewgvMWUIrhCXOMvsCN2whnKYbXNrgxuMByE/SZPMY8xXD/G7igCYa51H6vWcJS4/qnUgx3uMJ+z/s9J/8BFzTDwxs6DUUxi15rIwAAAABJRU5ErkJggg=="/><g fill-rule="nonzero"><path d="m36.75 10.965-.68-.554c.274-.336.797-1.065 1.459-1.99 3.538-4.937 5.525-7.463 6.558-7.563.207-.02.399.043.542.177.998.939 4.896 6.85 6.219 9.201l-.765.429c-1.318-2.344-4.996-7.879-5.979-8.916-.976.364-4.385 5.122-5.862 7.183-.672.936-1.202 1.677-1.492 2.033" fill="#af96a0"/><path d="m45.552 1.573c0 .797-.646 1.443-1.442 1.443-.797 0-1.444-.646-1.444-1.443s.647-1.443 1.444-1.443c.796 0 1.442.646 1.442 1.443" fill="#808285"/><path d="m45.359.854c.071.171.11.358.11.555 0 .797-.645 1.442-1.442 1.442-.535 0-1.001-.292-1.251-.724.218.522.732.889 1.333.889.797 0 1.442-.646 1.442-1.443 0-.262-.07-.507-.192-.719" fill="#58595b"/></g><image height="103" transform="matrix(.999163 0 0 .999476 8.74567 15.7597)" width="86" xlink:href="data:image/png;base64,iVBORw0KGgoAAAANSUhEUgAAAFYAAABnCAYAAACacLX/AAAACXBIWXMAAA7EAAAOxAGVKw4bAAAA/klEQVR4nO3QgQmAMADAsLnH9rOI9+2JFUGSC0qv+3nX4Lj5dcBfGRsxNmJsxNiIsRFjI8ZGjI0YGzE2YmzE2IixEWMjxkaMjRgbMTZibMTYiLERYyPGRoyNGBsxNmJsxNiIsRFjI8ZGjI0YGzE2YmzE2IixEWMjxkaMjRgbMTZibMTYiLERYyPGRoyNGBsxNmJsxNiIsRFjI8ZGjI0YGzE2YmzE2IixEWMjxkaMjRgbMTZibMTYiLERYyPGRoyNGBsxNmJsxNiIsRFjI8ZGjI0YGzE2YmzE2IixEWMjxkaMjRgbMTZibMTYiLERYyPGRoyNGBsxNmJsxNiIsZENauYDKYgsQ2wAAAAASUVORK5CYII="/><path d="m.012 8.596h91.508v108.708h-91.508z" fill="#b2b4b6"/><path d="m9.439 17.774h72.181v90.291h-72.181z" fill="#fff"/><g fill-rule="nonzero"><path d="m4.115 112.956v-.256l9.466-8.264v.151h64.285l9.551 8.369z" fill="#c4c2cc"/><path d="m13.581 21.313v83.221l-9.466 8.422v-100.013l9.587 8.37z" fill="#909098"/><path d="m13.702 21.313-9.587-8.37h83.209l-9.372 8.37z" fill="#9e9fa9"/><path d="m77.866 104.587h.086v-83.273l9.372-8.371h.095v100.013h-.002z" fill="#b3b3bf"/><g fill="#231f20"><path d="m.068 0h.1v-.094c.035.065.107.11.2.11.156 0 .28-.115.28-.29 0-.181-.135-.286-.276-.286-.07.001-.15.032-.2.103v-.283h-.104zm.476-.272c-.001.094-.067.191-.191.191-.111 0-.185-.088-.185-.192 0-.103.076-.19.188-.19.107 0 .188.084.188.19z" transform="matrix(20 0 0 20 13.017 74.055)"/><path d="m.622-.544h-.104v.096c-.025-.052-.094-.112-.202-.112-.158 0-.279.122-.279.288 0 .152.104.288.279.288.086 0 .164-.038.202-.111v.095h.104zm-.481.273c0-.102.074-.192.188-.192.087 0 .148.049.174.112.012.025.017.053.016.081s-.007.056-.019.081c-.027.062-.086.108-.169.108-.132 0-.189-.108-.19-.189z" transform="matrix(20 0 0 20 26.697 74.055)"/><path d="m.068 0h.104v-.303c0-.094.047-.158.149-.159.106-.001.144.069.144.167v.295h.105v-.319c0-.113-.046-.239-.22-.241-.097-.001-.158.044-.184.1v-.084h-.098z" transform="matrix(20 0 0 20 40.517 74.055)"/><path d="m.497-.191c-.022.054-.079.109-.17.11-.104 0-.186-.079-.186-.191 0-.055.021-.106.053-.138.038-.036.078-.054.133-.053.074 0 .142.041.17.114h.107c-.034-.131-.151-.211-.281-.211-.163 0-.286.127-.286.288 0 .151.113.288.291.288.136 0 .243-.089.276-.207z" transform="matrix(20 0 0 20 53.237 74.055)"/><path d="m.037-.272c0 .146.107.287.29.287s.29-.141.29-.287-.107-.288-.29-.288-.29.142-.29.287zm.104 0c0-.109.082-.19.186-.19s.186.081.186.19-.082.19-.186.19-.186-.081-.186-.189z" transform="matrix(20 0 0 20 65.977 74.055)"/></g></g></svg>

<?xml version="1.0" encoding="UTF-8" standalone="no"?>
<!DOCTYPE svg PUBLIC "-//W3C//DTD SVG 1.1//EN" "http://www.w3.org/Graphics/SVG/1.1/DTD/svg11.dtd">
<svg width="100%" height="100%" viewBox="0 0 95 119" version="1.1" xmlns="http://www.w3.org/2000/svg" xmlns:xlink="http://www.w3.org/1999/xlink" xml:space="preserve" xmlns:serif="http://www.serif.com/" style="fill-rule:evenodd;clip-rule:evenodd;stroke-linejoin:round;stroke-miterlimit:2;">
    <g>
        <g id="_Image1_" serif:id="_Image1" transform="matrix(0.9852,0,0,0.919058,36.0977,1.62122)">
            <use id="_Image1_1" serif:id="_Image1" xlink:href="#_Image1" x="0" y="0" width="15px" height="11px"/>
        </g>
        <path d="M36.75,10.965L36.07,10.411C36.344,10.075 36.867,9.346 37.529,8.421C41.067,3.484 43.054,0.958 44.087,0.858C44.294,0.838 44.486,0.901 44.629,1.035C45.627,1.974 49.525,7.885 50.848,10.236L50.083,10.665C48.765,8.321 45.087,2.786 44.104,1.749C43.128,2.113 39.719,6.871 38.242,8.932C37.57,9.868 37.04,10.609 36.75,10.965" style="fill:rgb(175,150,160);fill-rule:nonzero;"/>
        <path d="M45.552,1.573C45.552,2.37 44.906,3.016 44.11,3.016C43.313,3.016 42.666,2.37 42.666,1.573C42.666,0.776 43.313,0.13 44.11,0.13C44.906,0.13 45.552,0.776 45.552,1.573" style="fill:rgb(128,130,133);fill-rule:nonzero;"/>
        <path d="M45.359,0.854C45.43,1.025 45.469,1.212 45.469,1.409C45.469,2.206 44.824,2.851 44.027,2.851C43.492,2.851 43.026,2.559 42.776,2.127C42.994,2.649 43.508,3.016 44.109,3.016C44.906,3.016 45.551,2.37 45.551,1.573C45.551,1.311 45.481,1.066 45.359,0.854" style="fill:rgb(88,89,91);fill-rule:nonzero;"/>
        <g id="_Image2_" serif:id="_Image2" transform="matrix(0.999163,0,0,0.999476,8.74567,15.7597)">
            <use id="_Image2_1" serif:id="_Image2" xlink:href="#_Image2" x="0" y="0" width="86px" height="103px"/>
        </g>
        <rect x="0.012" y="8.596" width="91.508" height="108.708" style="fill:rgb(178,180,182);"/>
        <rect class="fondo" x="9.439" y="17.774" width="72.181" height="90.291" style="fill:white;"/>
        <path d="M4.115,112.956L4.115,112.7L13.581,104.436L13.581,104.587L77.866,104.587L87.417,112.956L4.115,112.956Z" style="fill:rgb(196,194,204);fill-rule:nonzero;"/>
        <path d="M13.581,21.313L13.581,104.534L4.115,112.956L4.115,12.943L13.702,21.313L13.581,21.313Z" style="fill:rgb(144,144,152);fill-rule:nonzero;"/>
        <path d="M13.702,21.313L4.115,12.943L87.324,12.943L77.952,21.313L13.702,21.313Z" style="fill:rgb(158,159,169);fill-rule:nonzero;"/>
        <path d="M77.866,104.587L77.952,104.587L77.952,21.314L87.324,12.943L87.419,12.943L87.419,112.956L87.417,112.956L77.866,104.587Z" style="fill:rgb(179,179,191);fill-rule:nonzero;"/>
        <g transform="matrix(1,0,0,1,13.017,74.055)">
            <g transform="matrix(20,0,0,20,0,0)">
                <path d="M0.068,0L0.168,0L0.168,-0.094C0.203,-0.029 0.275,0.016 0.368,0.016C0.524,0.016 0.648,-0.099 0.648,-0.274C0.648,-0.455 0.513,-0.56 0.372,-0.56C0.302,-0.559 0.222,-0.528 0.172,-0.457L0.172,-0.74L0.068,-0.74L0.068,0ZM0.544,-0.272C0.543,-0.178 0.477,-0.081 0.353,-0.081C0.242,-0.081 0.168,-0.169 0.168,-0.273C0.168,-0.376 0.244,-0.463 0.356,-0.463C0.463,-0.463 0.544,-0.379 0.544,-0.273L0.544,-0.272Z" style="fill:rgb(35,31,32);fill-rule:nonzero;"/>
            </g>
            <g transform="matrix(20,0,0,20,13.68,0)">
                <path d="M0.622,-0.544L0.518,-0.544L0.518,-0.448C0.493,-0.5 0.424,-0.56 0.316,-0.56C0.158,-0.56 0.037,-0.438 0.037,-0.272C0.037,-0.12 0.141,0.016 0.316,0.016C0.402,0.016 0.48,-0.022 0.518,-0.095L0.518,0L0.622,0L0.622,-0.544ZM0.141,-0.271C0.141,-0.373 0.215,-0.463 0.329,-0.463C0.416,-0.463 0.477,-0.414 0.503,-0.351C0.515,-0.326 0.52,-0.298 0.519,-0.27C0.518,-0.242 0.512,-0.214 0.5,-0.189C0.473,-0.127 0.414,-0.081 0.331,-0.081C0.199,-0.081 0.142,-0.189 0.141,-0.27L0.141,-0.271Z" style="fill:rgb(35,31,32);fill-rule:nonzero;"/>
            </g>
            <g transform="matrix(20,0,0,20,27.5,0)">
                <path d="M0.068,0L0.172,0L0.172,-0.303C0.172,-0.397 0.219,-0.461 0.321,-0.462C0.427,-0.463 0.465,-0.393 0.465,-0.295L0.465,0L0.57,0L0.57,-0.319C0.57,-0.432 0.524,-0.558 0.35,-0.56C0.253,-0.561 0.192,-0.516 0.166,-0.46L0.166,-0.544L0.068,-0.544L0.068,0Z" style="fill:rgb(35,31,32);fill-rule:nonzero;"/>
            </g>
            <g transform="matrix(20,0,0,20,40.22,0)">
                <path d="M0.497,-0.191C0.475,-0.137 0.418,-0.082 0.327,-0.081C0.223,-0.081 0.141,-0.16 0.141,-0.272C0.141,-0.327 0.162,-0.378 0.194,-0.41C0.232,-0.446 0.272,-0.464 0.327,-0.463C0.401,-0.463 0.469,-0.422 0.497,-0.349L0.604,-0.349C0.57,-0.48 0.453,-0.56 0.323,-0.56C0.16,-0.56 0.037,-0.433 0.037,-0.272C0.037,-0.121 0.15,0.016 0.328,0.016C0.464,0.016 0.571,-0.073 0.604,-0.191L0.497,-0.191Z" style="fill:rgb(35,31,32);fill-rule:nonzero;"/>
            </g>
            <g transform="matrix(20,0,0,20,52.96,0)">
                <path d="M0.037,-0.272C0.037,-0.126 0.144,0.015 0.327,0.015C0.51,0.015 0.617,-0.126 0.617,-0.272C0.617,-0.418 0.51,-0.56 0.327,-0.56C0.144,-0.56 0.037,-0.418 0.037,-0.273L0.037,-0.272ZM0.141,-0.272C0.141,-0.381 0.223,-0.462 0.327,-0.462C0.431,-0.462 0.513,-0.381 0.513,-0.272C0.513,-0.163 0.431,-0.082 0.327,-0.082C0.223,-0.082 0.141,-0.163 0.141,-0.271L0.141,-0.272Z" style="fill:rgb(35,31,32);fill-rule:nonzero;"/>
            </g>
        </g>
    </g>
    <defs>
        <image id="_Image1" width="15px" height="11px" xlink:href="data:image/png;base64,iVBORw0KGgoAAAANSUhEUgAAAA8AAAALCAYAAACgR9dcAAAACXBIWXMAAA7EAAAOxAGVKw4bAAAA1klEQVQokY3RXyvEQRTG8Y/dcqEUSUgt2m29l2maFztN8zbcSGx7s5uSFDci5M+FHy1+fjyX58z3ec6cs6RDudRdbOMoxfDyvd/rAA+whmsM2t60wrnUPazjFDNs5lJX/oRzqavYwnGK4bkZd4pxJ5xL7eMQJymGx496iuEGD7nUna7kIS5TDLctv5likEtd/gHnUjewgvMWUIrhCXOMvsCN2whnKYbXNrgxuMByE/SZPMY8xXD/G7igCYa51H6vWcJS4/qnUgx3uMJ+z/s9J/8BFzTDwxs6DUUxi15rIwAAAABJRU5ErkJggg=="/>
        <image id="_Image2" width="86px" height="103px" xlink:href="data:image/png;base64,iVBORw0KGgoAAAANSUhEUgAAAFYAAABnCAYAAACacLX/AAAACXBIWXMAAA7EAAAOxAGVKw4bAAAA/klEQVR4nO3QgQmAMADAsLnH9rOI9+2JFUGSC0qv+3nX4Lj5dcBfGRsxNmJsxNiIsRFjI8ZGjI0YGzE2YmzE2IixEWMjxkaMjRgbMTZibMTYiLERYyPGRoyNGBsxNmJsxNiIsRFjI8ZGjI0YGzE2YmzE2IixEWMjxkaMjRgbMTZibMTYiLERYyPGRoyNGBsxNmJsxNiIsRFjI8ZGjI0YGzE2YmzE2IixEWMjxkaMjRgbMTZibMTYiLERYyPGRoyNGBsxNmJsxNiIsRFjI8ZGjI0YGzE2YmzE2IixEWMjxkaMjRgbMTZibMTYiLERYyPGRoyNGBsxNmJsxNiIsZENauYDKYgsQ2wAAAAASUVORK5CYII="/>
    </defs>
</svg>
